X:16
T:Od's Zounds Make Room For Cuckolds. ASH.16
M:6/4
L:1/4
Q:3/4=90
S:Harrison & Wall MS,Ashover,Derbyshire,1762-75
R:.Jig
O:England
A:Derbyshire
Z:vmp.Chris Partington., 2003.
K:D
d2DF>GA | fedecA | d2DFGA | fefd3:|!
|:fedecA | fedecA | d2DFGA | fefd3:|


